icon-themes/sifr_svg/cmd/sc_rect_rounded_unfilled.svg

<svg viewBox="0 0 16 16" xmlns="http://www.w3.org/2000/svg"><path d="m4 3c-1.662 0-3 1.338-3 3v4c0 1.662 1.338 3 3 3h8c1.662 0 3-1.338 3-3v-4c0-1.662-1.338-3-3-3zm0 2h8c.554 0 1 .446 1 1v4c0 .554-.446 1-1 1h-8c-.554 0-1-.446-1-1v-4c0-.554.446-1 1-1z" fill="#555753"/></svg>

<svg xmlns="http://www.w3.org/2000/svg" viewBox="0 0 16 16">
  <path
     style="fill:#555753"
     d="M 4 3 C 2.338 3 1 4.338 1 6 L 1 10 C 1 11.662 2.338 13 4 13 L 12 13 C 13.662 13 15 11.662 15 10 L 15 6 C 15 4.338 13.662 3 12 3 L 4 3 z M 4 5 L 12 5 C 12.554 5 13 5.446 13 6 L 13 10 C 13 10.554 12.554 11 12 11 L 4 11 C 3.446 11 3 10.554 3 10 L 3 6 C 3 5.446 3.446 5 4 5 z "
     />
</svg>
